packages/log/img/icon.svg

<svg width="32" height="32" viewBox="0 0 32 32" fill="none" xmlns="http://www.w3.org/2000/svg">
    <path fill-rule="evenodd" clip-rule="evenodd" d="M17 13H8V15H17V13ZM24 18H8V20H24V18ZM8 23H24V25H8V23Z" fill="#017D73"/>
    <path d="M21.41 0H5C3.34315 0 2 1.34315 2 3V29C2 30.6569 3.34315 32 5 32H27C28.6569 32 30 30.6569 30 29V8.59L21.41 0ZM22 3.41L26.59 8H22V3.41ZM27 30H5C4.44772 30 4 29.5523 4 29V3C4 2.44772 4.44772 2 5 2H20V10H28V29C28 29.5523 27.5523 30 27 30Z" fill="#343741"/>
</svg>

<svg width="32" height="32" viewBox="0 0 32 32" xmlns="http://www.w3.org/2000/svg" class="euiIcon euiIcon--xLarge euiIcon--app" focusable="false" role="img" aria-hidden="true"><path class="euiIcon__fillSecondary" d="M8 18h16v2H8zM8 13h9v2H8zM8 23h16v2H8z"></path><path d="M21.41 0H5a3 3 0 00-3 3v26a3 3 0 003 3h22a3 3 0 003-3V8.59L21.41 0zM22 3.41L26.59 8H22V3.41zM27 30H5a1 1 0 01-1-1V3a1 1 0 011-1h15v8h8v19a1 1 0 01-1 1z"></path></svg>
